!!!!SEGMENT: pl-wnifc--13846--011_anonim--piesni-polskie-i-ruskie-ludu-galicyjskiego-11-siedzi-sobie-zajac-pod-miedza.krn
!!!kernsource:
!!!cenid: 18xx:3233
!!!COM: Anonim
!!!COM-rismID: pe30004985
!!!CDT:
!!!CNT:
!!!GTL: Pieśni polskie i ruskie ludu galicyjskiego
!!!OTL: 11. Siedzi sobie zając pod miedzą
!!!PDT: 1833
!!!AGN:
!!!SMS-siglum: PL-Wnifc
!!!SMS-shelfmark: 13846
!!!SMS-shelfwork: 011 G
!!!NIFC-rismSourceID: 1001036736
!!!NIFC-islandoraID:
!!!URL-pdf-islandora:
!!!URL-scan:
!!!ONB-nifc:
!!!AIN: 1 piano 1 vox
!!!key: B
!!!OMD: Allegro Moderato.
**kern	**kern	**kern	**text
*part2	*part2	*part1	*part1
*staff3	*staff2	*staff1	*staff1
*I"FORTEPIAN.	*I"FORTEPIAN.	*I"GŁOS.	*
*Ipiano	*Ipiano	*Ivox	*
*ICklav	*ICklav	*ICvox	*
*IGacmp	*IGacmp	*IGsolo	*
*>[A,B,B]	*>[A,B,B]	*>[A,B,B]	*>[A,B,B]
*>A	*>A	*>A	*>A
*clefF4	*clefG2	*clefG2	*
*k[b-e-]	*k[b-e-]	*k[b-e-]	*
*B:	*B:	*B:	*
*M4/4	*M4/4	*M4/4	*
*met(c)	*met(c)	*met(c)	*
=1-	=1-	=1-	=1-
!	!	!LO:TX:a:t=C.c.3.	!
4BB-/ 4BBB-/	8b-/L 8d/	8b-\	Sie-
.	8cc/ 8f/	8cc\	-dzi
4B-\ 4BB-\	8dd\ 8b-\	8dd\	so-
.	8ee-\J 8cc\	8ee-\	-bie
4B-\ 4BB-\	4ff\ 4dd\	4ff\	za-
4B-\ 4BB-\	4ff\ 4dd\ 4b-\ 4f\	4ff\	-jąc
=2	=2	=2	=2
4E-/ 4BB-/ 4GG/ 4EE-/	4gg\ 4ee-\ 4cc\ 4a\	4gg\	pod
4E-/ 4BB-/ 4GG/ 4EE-/	4gg\ 4ee-\ 4b-\ 4g\	4gg\	mie-
2BB-/ 2FF/ 2DD/ 2BBB-/	2ff\ 2dd\ 2b-\ 2f\	2ff\	-dzą
!!LO:LB:g=original
=3	=3	=3	=3
4E-/ 4BB-/ 4GG/ 4EE-/	4gg\ 4ee-\ 4b-\ 4g\	4gg\	pod
4E-/ 4BB-/ 4GG/ 4EE-/	4gg\ 4ee-\ 4b-\ 4g\	4gg\	mie-
2D/ 2FF/ 2DD/ 2BBB-/	2ff\ 2dd\ 2b-\ 2f\	2ff\	-dzą
=4	=4	=4	=4
4BB-/ 4BBB-/	8b-/L 8d/	8b-\	a
.	8cc/ 8f/	8cc\	my-
4B-\ 4BB-\	8dd\ 8b-\	8dd\	-śli-
.	8ee-\J 8cc\	8ee-\	-wi
4B-\ 4BB-\	4ff\ 4dd\	4ff\	o
4B-\ 4BB-\	4ff\ 4dd\ 4b-\ 4f\	4ff\	nim
=5	=5	=5	=5
4E-/ 4BB-/ 4GG/ 4EE-/	4gg\ 4ee-\ 4b-\ 4f\	4gg\	nie
4E-/ 4BB-/ 4GG/ 4EE-/	4gg\ 4ee-\ 4b-\ 4g\	4gg\	wie-
2BB-/ 2FF/ 2DD/ 2BBB-/	2ff\ 2dd\ 2b-\ 2f\	2ff\	-dzą
!!LO:LB:g=original
=6	=6	=6	=6
4E-/ 4BB-/ 4GG/ 4EE-/	4gg\ 4ee-\ 4b-\ 4g\	4gg\	nie
4E-/ 4BB-/ 4GG/ 4EE-/	4gg\ 4ee-\ 4b-\ 4g\	4gg\	wie-
2BB-/ 2FF/ 2DD/ 2BBB-/	2ff\ 2dd\ 2b-\ 2f\	2ff\	-dzą
=7!|:	=7!|:	=7!|:	=7!|:
*>B	*>B	*>B	*>B
4BBB-/'	8dd\L 8b-\	8dd\	psy
.	8ff\ 8dd\	8ff\	po
(4BB-/	8ff\ 8dd\	8ff\	po-
.	8ff\J 8dd\	8ff\	-lu
4AA/	8ff\L 8dd\	8ff\	roz-
.	8ee-\ 8cc\	8ee-\	-pu-
4BB-/)	8ee-\ 8cc\	8ee-\	-ści-
.	8dd\J 8b-\	8dd\	-li
!!LO:LB:g=original
=8	=8	=8	=8
4BBB-/'	(8dd\L 8b-\	8dd\	krzyk
.	8ff\ 8dd\)	8ff\	i
(4BB-/	8ff\ 8dd\'	8ff\	łos-
.	8ff\J 8dd\'	8ff\	-kot
4AA/	8ff\L 8dd\'	8ff\	u-
.	8ee-\ 8cc\'	8ee-\	-czy-
4BB-/)	8ee-\ 8cc\'	8ee-\	-ni-
.	8dd\J 8b-\'	8dd\	-li
=9	=9	=9	=9
4BB-/	4dd\ 4b-\ 4f\	4dd\	był
4F/ 4FF/	4cc\ 4a\ 4f\	4cc\	tu
2F/ 2C/ 2AA/ 2FF/	2ff\ 2cc\ 2a\ 2f\	2ff\^	kot
=10	=10	=10	=10
4F/ 4BB-/	4dd\ 4b-\ 4f\	4dd\	był
4F/ 4FF/	4cc\ 4a\ 4f\	4cc\	tu
2F/ 2BB-/	2b-/ 2f/ 2d/	2b-\'	kot
=:|!	=:|!	=:|!	=:|!
*-	*-	*-	*-
!!!system-decoration: s1{(s2,s3)}
!!!ENC: Marta Lawrence
!!!END: 2021-11-10
!!!YEC: Copyright 2022 Narodowy Instytut Fryderyka Chopina (https://polishscores.org)
!!!YEM: Licence CC BY 4.0 (https://creativecommons.org/licenses/by/4.0)
